src/assets/outline/EmptyWallet.svg

<svg width="24" height="24" viewBox="0 0 24 24"  xmlns="http://www.w3.org/2000/svg">
<path d="M17.74 22.75H6.26C3.77 22.75 1.75 20.73 1.75 18.24V11.51C1.75 9.02001 3.77 7 6.26 7H17.74C20.23 7 22.25 9.02001 22.25 11.51V12.95C22.25 13.36 21.91 13.7 21.5 13.7H19.48C19.13 13.7 18.81 13.83 18.58 14.07L18.57 14.08C18.29 14.35 18.16 14.72 18.19 15.1C18.25 15.76 18.88 16.29 19.6 16.29H21.5C21.91 16.29 22.25 16.63 22.25 17.04V18.23C22.25 20.73 20.23 22.75 17.74 22.75ZM6.26 8.5C4.6 8.5 3.25 9.85001 3.25 11.51V18.24C3.25 19.9 4.6 21.25 6.26 21.25H17.74C19.4 21.25 20.75 19.9 20.75 18.24V17.8H19.6C18.09 17.8 16.81 16.68 16.69 15.24C16.61 14.42 16.91 13.61 17.51 13.02C18.03 12.49 18.73 12.2 19.48 12.2H20.75V11.51C20.75 9.85001 19.4 8.5 17.74 8.5H6.26Z" />
<path d="M2.5 13.16C2.09 13.16 1.75 12.82 1.75 12.41V7.84006C1.75 6.35006 2.69 5.00001 4.08 4.47001L12.02 1.47001C12.84 1.16001 13.75 1.27005 14.46 1.77005C15.18 2.27005 15.6 3.08005 15.6 3.95005V7.75003C15.6 8.16003 15.26 8.50003 14.85 8.50003C14.44 8.50003 14.1 8.16003 14.1 7.75003V3.95005C14.1 3.57005 13.92 3.22003 13.6 3.00003C13.28 2.78003 12.9 2.73003 12.54 2.87003L4.6 5.87003C3.79 6.18003 3.24 6.97006 3.24 7.84006V12.41C3.25 12.83 2.91 13.16 2.5 13.16Z" />
<path d="M19.6 17.7999C18.09 17.7999 16.81 16.6799 16.69 15.2399C16.61 14.4099 16.91 13.5999 17.51 13.0099C18.02 12.4899 18.72 12.2 19.47 12.2H21.55C22.54 12.23 23.3 13.0099 23.3 13.9699V16.03C23.3 16.99 22.54 17.7699 21.58 17.7999H19.6ZM21.53 13.7H19.48C19.13 13.7 18.81 13.8299 18.58 14.0699C18.29 14.3499 18.15 14.7299 18.19 15.1099C18.25 15.7699 18.88 16.2999 19.6 16.2999H21.56C21.69 16.2999 21.81 16.18 21.81 16.03V13.9699C21.81 13.8199 21.69 13.71 21.53 13.7Z" />
<path d="M14 12.75H7C6.59 12.75 6.25 12.41 6.25 12C6.25 11.59 6.59 11.25 7 11.25H14C14.41 11.25 14.75 11.59 14.75 12C14.75 12.41 14.41 12.75 14 12.75Z" />
</svg>

<?xml version="1.0" encoding="UTF-8"?>
<svg width="24" height="24" viewBox="0 0 24 24" xmlns="http://www.w3.org/2000/svg">
 <path d="m17.74 22.75h-11.48c-2.49 0-4.51-2.02-4.51-4.51v-6.73c0-2.49 2.02-4.51 4.51-4.51h11.48c2.49 0 4.51 2.02 4.51 4.51v1.44c0 0.41-0.34 0.75-0.75 0.75h-2.02c-0.35 0-0.67 0.13-0.9 0.37l-0.01 0.01c-0.28 0.27-0.41 0.64-0.38 1.02 0.06 0.66 0.69 1.19 1.41 1.19h1.9c0.41 0 0.75 0.34 0.75 0.75v1.19c0 2.5-2.02 4.52-4.51 4.52zm-11.48-14.25c-1.66 0-3.01 1.35-3.01 3.01v6.73c0 1.66 1.35 3.01 3.01 3.01h11.48c1.66 0 3.01-1.35 3.01-3.01v-0.44h-1.15c-1.51 0-2.79-1.12-2.91-2.56-0.08-0.82 0.22-1.63 0.82-2.22 0.52-0.53 1.22-0.82 1.97-0.82h1.27v-0.69c0-1.66-1.35-3.01-3.01-3.01h-11.48z"/>
 <path d="m2.5 13.16c-0.41 0-0.75-0.34-0.75-0.75v-4.5699c0-1.49 0.94-2.84 2.33-3.37l7.94-3c0.82-0.31 1.73-0.19996 2.44 0.30004 0.72 0.5 1.14 1.31 1.14 2.18v3.8c0 0.41-0.34 0.75-0.75 0.75s-0.75-0.34-0.75-0.75v-3.8c0-0.38-0.18-0.73002-0.5-0.95002s-0.7-0.27-1.06-0.13l-7.94 3c-0.81 0.31-1.36 1.1-1.36 1.97v4.5699c0.01 0.42-0.33 0.75-0.74 0.75z"/>
 <path d="m19.6 17.8c-1.51 0-2.79-1.12-2.91-2.56-0.08-0.83 0.22-1.64 0.82-2.23 0.51-0.52 1.21-0.8099 1.96-0.8099h2.08c0.99 0.03 1.75 0.8099 1.75 1.7699v2.0601c0 0.96-0.76 1.7399-1.72 1.7699h-1.98zm1.93-4.0999h-2.05c-0.35 0-0.67 0.1299-0.9 0.3699-0.29 0.28-0.43 0.66-0.39 1.04 0.06 0.66 0.69 1.19 1.41 1.19h1.96c0.13 0 0.25-0.1199 0.25-0.2699v-2.0601c0-0.15-0.12-0.2599-0.28-0.2699z"/>
 <path d="m14 12.75h-7c-0.41 0-0.75-0.34-0.75-0.75s0.34-0.75 0.75-0.75h7c0.41 0 0.75 0.34 0.75 0.75s-0.34 0.75-0.75 0.75z"/>
</svg>
